wp-content/themes/sd-accesslasers/public/images/product/icons/model.svg

<?xml version="1.0" encoding="UTF-8"?>
<svg width="20px" height="20px" viewBox="0 0 20 20" version="1.1" xmlns="http://www.w3.org/2000/svg" xmlns:xlink="http://www.w3.org/1999/xlink">
    <!-- Generator: Sketch 55 (78076) - https://sketchapp.com -->
    <title>3D Model</title>
    <desc>Created with Sketch.</desc>
    <g id="Product" stroke="none" stroke-width="1" fill="none" fill-rule="evenodd">
        <g id="AL_Product-Copy" transform="translate(-1659.000000, -776.000000)" fill="currentColor" fill-rule="nonzero" stroke="#ED3D4A" stroke-width="0.1">
            <g id="Hero" transform="translate(149.000000, 28.000000)">
                <g id="Product" transform="translate(0.000000, 104.000000)">
                    <g id="Content" transform="translate(975.000000, 122.000000)">
                        <g id="3" transform="translate(0.000000, 458.000000)">
                            <g id="Downloads-Copy" transform="translate(13.000000, 64.000000)">
                                <g id="4" transform="translate(523.000000, 0.000000)">
                                    <g id="360-degree" transform="translate(0.000000, 2.000000)">
                                        <path d="M13.7894897,10.3780949 L14.7987213,9.84153133 C14.9728546,9.74898182 15.0820313,9.56570018 15.0820313,9.3656422 C15.0820313,9.3414563 15.0820313,3.47979951 15.0820313,3.47979951 C15.0820313,3.46903469 15.0816193,3.45910868 15.0809326,3.44988167 C15.0706329,3.26170696 14.9640655,3.0918464 14.7987213,3.00391037 L9.26312256,0.0609191153 C9.11013792,-0.0203063718 8.92776488,-0.0203063718 8.77491759,0.0609191153 L3.23918153,3.00391037 C3.07369997,3.0918464 2.96713259,3.26198654 2.95697021,3.45030108 C2.9564209,3.45938827 2.9560089,3.46903469 2.9560089,3.47979951 C2.9560089,3.47979951 2.9564209,9.38577382 2.95697021,9.3947212 C2.96699523,9.58317554 3.07356261,9.75345551 3.23918153,9.84153133 L4.23866271,10.3729222 C2.34558105,10.7182354 0,11.432209 0,12.8493911 C0,14.3683499 2.67201232,15.0796671 4.66040039,15.3985576 L3.77078245,16.0206806 C3.53073122,16.1885839 3.46989442,16.5228526 3.63482666,16.7670884 C3.73699951,16.9186347 3.90206911,17 4.06988525,17 C4.17274474,17 4.27684022,16.969523 4.36802674,16.905633 L6.41574098,15.4734919 C6.53686523,15.3887714 6.61775207,15.256378 6.63890077,15.1081869 C6.66004943,14.9601356 6.61953734,14.8097077 6.52711486,14.6933916 L4.96266173,12.7242675 C4.77960205,12.4938723 4.44754027,12.4580828 4.22108459,12.6445799 C3.99462891,12.8309372 3.95947266,13.1689806 4.1426697,13.3995156 L4.89921571,14.3518531 C1.9960785,13.9026663 1.0546875,13.1185118 1.0546875,12.8493911 C1.0546875,12.5573429 2.19094847,11.635063 5.83676149,11.2225045 L8.77491759,12.7845226 C8.85140993,12.8252052 8.93518066,12.8454767 9.0189514,12.8454767 C9.10285949,12.8454767 9.18663026,12.8252052 9.26312256,12.7845226 L12.1945496,11.2259996 C15.8160553,11.6405153 16.9453125,12.5586011 16.9453125,12.8493911 C16.9453125,12.9847204 16.592926,13.4743102 15.0270996,13.9335628 C13.5874786,14.3557676 11.629303,14.6081119 9.51361084,14.644181 C9.22233582,14.6490741 8.99024963,14.8934496 8.99505615,15.1898318 C8.99986268,15.4832781 9.23510742,15.7177276 9.52226258,15.7177276 L9.53118896,15.7177276 C11.7372437,15.6801207 13.7926483,15.4128175 15.3190613,14.9653083 C17.0980225,14.4435638 18,13.7316874 18,12.8493911 C18,11.4387797 15.6743317,10.724946 13.7894897,10.3780949 L13.7894897,10.3780949 Z M4.62249756,9.3656422 L8.49160765,7.30872186 L8.49160765,11.4227023 L4.62249756,9.3656422 Z M4.0106964,4.3657306 L7.87980653,6.42265094 L4.0106964,8.47971111 L4.0106964,4.3657306 Z M14.0273438,8.47971111 L10.1580963,6.42279077 L14.0273438,4.3657306 L14.0273438,8.47971111 Z M9.54629515,7.30872186 L13.4155426,9.3656422 L9.54629515,11.4227023 L9.54629515,7.30872186 Z M9.54629515,5.53671985 L9.54629515,1.42273934 L13.4155426,3.47979951 L9.54629515,5.53671985 Z M8.49160765,1.42273934 L8.49160765,5.53671985 L4.62249756,3.47979951 L8.49160765,1.42273934 Z" id="Shape"></path>
                                    </g>
                                </g>
                            </g>
                        </g>
                    </g>
                </g>
            </g>
        </g>
    </g>
</svg>

<svg width="20" height="20" viewBox="0 0 20 20" version="1.1" xmlns="http://www.w3.org/2000/svg"><g id="Product" stroke="none" stroke-width="1" fill="none" fill-rule="evenodd"><g id="AL_Product-Copy" transform="translate(-1659 -776)" fill="currentColor" fill-rule="nonzero" stroke="#ED3D4A" stroke-width=".1"><g id="Hero" transform="translate(149 28)"><g id="Product" transform="translate(0 104)"><g id="Content" transform="translate(975 122)"><g id="3" transform="translate(0 458)"><g id="Downloads-Copy" transform="translate(13 64)"><g id="4" transform="translate(523)"><g id="360-degree" transform="translate(0 2)"><path d="M13.79 10.378l1.009-.536a.538.538 0 0 0 .283-.476V3.48l-.001-.03a.538.538 0 0 0-.282-.446L9.263.06a.52.52 0 0 0-.488 0L3.239 3.004a.537.537 0 0 0-.283.476l.001 5.915a.54.54 0 0 0 .282.447l1 .53C2.346 10.719 0 11.433 0 12.85c0 1.52 2.672 2.23 4.66 2.55l-.89.622a.543.543 0 0 0-.135.746.524.524 0 0 0 .733.139l2.048-1.433a.544.544 0 0 0 .111-.78l-1.564-1.969a.521.521 0 0 0-.742-.08.543.543 0 0 0-.078.756l.756.952c-2.903-.45-3.844-1.233-3.844-1.503 0-.292 1.136-1.214 4.782-1.626l2.938 1.562a.52.52 0 0 0 .488 0l2.932-1.559c3.621.415 4.75 1.333 4.75 1.623 0 .136-.352.625-1.918 1.085-1.44.422-3.398.674-5.513.71a.533.533 0 0 0-.519.546c.005.293.24.528.527.528h.01c2.205-.038 4.26-.305 5.787-.753C17.098 14.444 18 13.732 18 12.85c0-1.41-2.326-2.124-4.21-2.47h0zM4.621 9.366l3.87-2.057v4.114l-3.87-2.057zm-.611-5l3.87 2.057L4.01 8.48V4.366zM14.027 8.48l-3.869-2.057 3.87-2.057V8.48zm-4.48-1.171l3.869 2.057-3.87 2.057V7.309zm0-1.772V1.423l3.869 2.057-3.87 2.057zM8.491 1.423v4.114L4.622 3.48l3.87-2.057z" id="Shape"/></g></g></g></g></g></g></g></g></g></svg>
